content/images/project/skywalking-cli.svg

<svg width="36" height="36" viewBox="0 0 36 36" fill="none" xmlns="http://www.w3.org/2000/svg">
<path d="M0 4C0 1.79086 1.79086 0 4 0H32C34.2091 0 36 1.79086 36 4V32C36 34.2091 34.2091 36 32 36H4C1.79086 36 0 34.2091 0 32V4Z" fill="#3987CD"/>
<path d="M12.4839 18L6 11H10.5591L15.8925 16.775C16.5161 17.4633 16.5161 18.5833 15.8925 19.2483L10.5914 25H6.03226L12.4839 18Z" fill="white"/>
<path d="M18.3979 25V21.5H30.0001V25H18.3979Z" fill="white" fill-opacity="0.5"/>
</svg>

<svg xmlns="http://www.w3.org/2000/svg" width="36" height="36" fill="none" viewBox="0 0 36 36"><path fill="#3987CD" d="M0 4a4 4 0 0 1 4-4h28a4 4 0 0 1 4 4v28a4 4 0 0 1-4 4H4a4 4 0 0 1-4-4V4Z"/><path fill="#fff" d="M12.484 18 6 11h4.56l5.332 5.775c.624.688.624 1.808 0 2.473L10.593 25h-4.56l6.452-7Z"/><path fill="#fff" fill-opacity=".5" d="M18.398 25v-3.5H30V25H18.398Z"/></svg>
